svg/u1f64d_1f3fd_200d_2640.svg

<svg viewBox="0 0 128 128" xmlns="http://www.w3.org/2000/svg">
  <g id="hairGroup_1_">
    <path id="hair" d="M104.11,51.39c0,13.73-0.59,30.64-2.83,45.25c-1.73,11.34-4.45,21.31-8.68,27.36H35.4 c-4.23-6.05-6.95-16.02-8.68-27.36c-2.24-14.61-2.83-31.52-2.83-45.25c0-0.6-0.32-38.52,40.68-38.52 C105.58,12.87,104.11,50.79,104.11,51.39z" fill="#543930"/>
    <radialGradient id="hairHighlights_2_" cx="63.9993" cy="62.4112" gradientTransform="matrix(1 0 0 -1.1901 0 139.862)" gradientUnits="userSpaceOnUse" r="48.5542">
      <stop offset="0.7936" stop-color="#6D4C41" stop-opacity="0"/>
      <stop offset="1" stop-color="#6D4C41"/>
    </radialGradient>
    <path id="hairHighlights_1_" d="M104.11,51.39c0,13.73-0.59,30.64-2.83,45.25 c-1.73,11.34-4.45,21.31-8.68,27.36H35.4c-4.23-6.05-6.95-16.02-8.68-27.36c-2.24-14.61-2.83-31.52-2.83-45.25 c0-0.6-0.32-38.52,40.68-38.52C105.58,12.87,104.11,50.79,104.11,51.39z" fill="url(#hairHighlights_2_)"/>
  </g>
  <g id="shirt">
    <linearGradient id="SVGID_1_" gradientTransform="matrix(1 0 0 -1 0 128)" gradientUnits="userSpaceOnUse" x1="63.996" x2="63.996" y1="40.1351" y2="6.0784">
      <stop offset="0" stop-color="#651FFF"/>
      <stop offset="0.7047" stop-color="#5914F2"/>
      <stop offset="1" stop-color="#530EEB"/>
    </linearGradient>
    <path d="M112,117.88V124H16v-6.12c0-9.39,4.05-16.33,10.72-21.24c5.39-3.96,12.49-6.6,20.55-8.13 c2.85-0.54,30.62-0.54,33.47,0c8.06,1.53,15.15,4.16,20.54,8.13C107.95,101.54,112,108.48,112,117.88z" fill="url(#SVGID_1_)"/>
  </g>
  <g id="neck">
    <path d="M54.92,93.85v9.98c0,4.51,4.33,8.17,9.08,8.17s9.08-3.66,9.08-8.17v-9.98H54.92z" fill="#99674F"/>
  </g>
  <path id="head" d="M64,23.1L64,23.1L64,23.1c-17.4,0-33.52,12.94-33.52,40.38 c0,22.04,13.65,35.08,25.53,39.28c2.83,1,5.57,1.51,7.99,1.51c2.41,0,5.13-0.5,7.94-1.49c11.89-4.19,25.58-17.23,25.58-39.3 C97.52,36.04,81.4,23.1,64,23.1z" fill="#BA8D68"/>
  <path id="nose" d="M67.81,78.06c-0.11-0.04-0.21-0.07-0.32-0.08H60.5c-0.11,0.01-0.21,0.04-0.32,0.08 c-0.63,0.26-0.98,0.91-0.68,1.61c0.3,0.7,1.69,2.66,4.49,2.66c2.8,0,4.2-1.96,4.49-2.66C68.79,78.97,68.45,78.31,67.81,78.06z" fill="#99674F"/>
  <path id="mouth" d="M56.67,91.77c4.63-1.45,10.27-1.38,14.66,0c0.8,0.25,1.2-0.57,0.65-1.41 C71.2,89.18,68.31,86.9,64,86.9s-7.2,2.28-7.98,3.46C55.47,91.21,55.87,92.03,56.67,91.77z" fill="#5D4037"/>
  <g id="eyes">
    <path d="M43.33,68.26c0.01-0.52,0.1-1.02,0.22-1.5c0.97-0.13,2.01-0.33,3.15-0.67 c1.68-0.51,2.94-1.34,3.91-2.24c1.07,1.01,1.76,2.62,1.72,4.43c-0.06,3.06-2.13,5.54-4.62,5.53 C45.23,73.81,43.27,71.32,43.33,68.26z" fill="#49362E"/>
    <path d="M84.67,68.26c-0.01-0.52-0.1-1.02-0.22-1.5c-0.97-0.13-2-0.33-3.15-0.67 c-1.68-0.51-2.94-1.34-3.91-2.24c-1.07,1.01-1.76,2.62-1.71,4.43c0.07,3.06,2.13,5.54,4.62,5.53 C82.77,73.81,84.73,71.32,84.67,68.26z" fill="#49362E"/>
  </g>
  <g id="eyebrows">
    <path d="M55.29,58.42c-1.19-1.04-3.75-2.4-8.12-1.63c-4.37,0.77-6.31,2.93-7.07,4.31 c-0.34,0.61-0.12,1.21,0.24,1.53c0.34,0.3,1.21,0.48,2.06,0.03c0.85-0.45,2.47-1.61,5.42-2.15c2.96-0.5,4.87,0.04,5.83,0.17 c0.95,0.13,1.71-0.34,1.93-0.73C55.81,59.52,55.81,58.88,55.29,58.42z" fill="#613E31"/>
    <path d="M87.9,61.13c-0.76-1.38-2.7-3.54-7.07-4.31s-6.93,0.59-8.12,1.63c-0.53,0.46-0.52,1.1-0.29,1.52 c0.22,0.4,0.97,0.86,1.93,0.73c0.95-0.13,2.87-0.67,5.82-0.17c2.95,0.54,4.56,1.71,5.42,2.15s1.72,0.27,2.06-0.03 C88.01,62.33,88.23,61.74,87.9,61.13z" fill="#613E31"/>
  </g>
  <g id="hairGroup">
    <path id="hair_5_" d="M64.57,12.87c-41.01,0-40.68,37.92-40.68,38.52c0,7.76,0.19,16.53,0.75,25.32 l6.72-0.02c-0.06-2.92,1.99-20.97,8.08-22.34c22.36-5.03,35.01-16.89,35.01-16.89c3.29,7.19,13.58,14.19,17.27,16.86 c3.03,2.19,4.04,18.55,3.98,22.38h7.63c0-0.05,0.02-0.1,0.02-0.16c0.56-8.75,0.74-17.46,0.74-25.17 C104.1,50.78,105.58,12.87,64.57,12.87z" fill="#543930"/>
    <radialGradient id="hairHighlights_3_" cx="64.2074" cy="54.3675" gradientTransform="matrix(1 0 0 -1.2618 0 142.2325)" gradientUnits="userSpaceOnUse" r="49.079">
      <stop offset="0.7945" stop-color="#6D4C41" stop-opacity="0"/>
      <stop offset="1" stop-color="#6D4C41"/>
    </radialGradient>
    <path id="hairHighlights" d="M64.57,12.87c-41.01,0-40.68,37.92-40.68,38.52 c0,7.76,0.19,16.53,0.75,25.32l6.72-0.02c-0.06-2.92,1.99-20.97,8.08-22.34c22.36-5.03,35.01-16.89,35.01-16.89 c3.29,7.19,13.58,14.19,17.27,16.86c3.03,2.19,4.04,18.55,3.98,22.38h7.63c0-0.05,0.02-0.1,0.02-0.16 c0.56-8.75,0.74-17.46,0.74-25.17C104.1,50.78,105.58,12.87,64.57,12.87z" fill="url(#hairHighlights_3_)"/>
  </g>
</svg>

<svg viewBox="0 0 128 128" xmlns="http://www.w3.org/2000/svg">
  <defs>
    <linearGradient id="SVGID_1_" gradientTransform="matrix(1 0 0 -1 0 0)" gradientUnits="userSpaceOnUse" x1="63.996" x2="63.996" y1="-87.8649" y2="-121.9216">
      <stop offset="0" stop-color="#651FFF"/>
      <stop offset="0.7047" stop-color="#5914F2"/>
      <stop offset="1" stop-color="#530EEB"/>
    </linearGradient>
    <radialGradient id="hairHighlights_2_" cx="63.9993" cy="-55.110017" gradientTransform="matrix(1 0 0 -1.1901 0 0)" gradientUnits="userSpaceOnUse" r="48.5542">
      <stop offset="0.7936" stop-color="#6D4C41" stop-opacity="0"/>
      <stop offset="1" stop-color="#6D4C41"/>
    </radialGradient>
    <radialGradient id="hairHighlights_3_" cx="64.2074" cy="-58.354405" gradientTransform="matrix(1 0 0 -1.2618 0 0)" gradientUnits="userSpaceOnUse" r="49.079">
      <stop offset="0.7945" stop-color="#6D4C41" stop-opacity="0"/>
      <stop offset="1" stop-color="#6D4C41"/>
    </radialGradient>
  </defs>
  <path id="hair" d="M104.11,51.39 C104.11,65.12 103.52,82.03 101.28,96.64 C99.55,107.98 96.83,117.95 92.6,124 L35.4,124 C31.17,117.95 28.45,107.98 26.72,96.64 C24.48,82.03 23.89,65.12 23.89,51.39 C23.89,50.79 23.57,12.87 64.57,12.87 C105.58,12.87 104.11,50.79 104.11,51.39 Z" fill="#543930"/>
  <path id="hairHighlights_1_" d="M104.11,51.39 C104.11,65.12 103.52,82.03 101.28,96.64 C99.55,107.98 96.83,117.95 92.6,124 L35.4,124 C31.17,117.95 28.45,107.98 26.72,96.64 C24.48,82.03 23.89,65.12 23.89,51.39 C23.89,50.79 23.57,12.87 64.57,12.87 C105.58,12.87 104.11,50.79 104.11,51.39 Z" fill="url(#hairHighlights_2_)"/>
  <path d="M112,117.88 L112,124 L16,124 L16,117.88 C16,108.49 20.05,101.55 26.72,96.64 C32.11,92.68 39.21,90.04 47.27,88.51 C50.12,87.97 77.89,87.97 80.74,88.51 C88.8,90.04 95.89,92.67 101.28,96.64 C107.95,101.54 112,108.48 112,117.88 Z" fill="url(#SVGID_1_)"/>
  <path d="M54.92,93.85 L54.92,103.83 C54.92,108.34 59.25,112 64,112 C68.75,112 73.08,108.34 73.08,103.83 L73.08,93.85 L54.92,93.85 Z" fill="#99674F"/>
  <path id="head" d="M64,23.1 L64,23.1 L64,23.1 C46.6,23.1 30.48,36.04 30.48,63.48 C30.48,85.52 44.13,98.56 56.01,102.76 C58.84,103.76 61.58,104.27 64,104.27 C66.41,104.27 69.13,103.77 71.94,102.78 C83.83,98.59 97.52,85.55 97.52,63.48 C97.52,36.04 81.4,23.1 64,23.1 Z" fill="#BA8D68"/>
  <path id="nose" d="M67.81,78.06 C67.7,78.02 67.6,77.99 67.49,77.98 L60.5,77.98 C60.39,77.99 60.29,78.02 60.18,78.06 C59.55,78.32 59.2,78.97 59.5,79.67 C59.8,80.37 61.19,82.33 63.99,82.33 C66.79,82.33 68.19,80.37 68.48,79.67 C68.79,78.97 68.45,78.31 67.81,78.06 Z" fill="#99674F"/>
  <path id="mouth" d="M56.67,91.77 C61.3,90.32 66.94,90.39 71.33,91.77 C72.13,92.02 72.53,91.2 71.98,90.36 C71.2,89.18 68.31,86.9 64,86.9 C59.69,86.9 56.8,89.18 56.02,90.36 C55.47,91.21 55.87,92.03 56.67,91.77 Z" fill="#5D4037"/>
  <path d="M43.33,68.26 C43.34,67.74 43.43,67.24 43.55,66.76 C44.52,66.63 45.56,66.43 46.7,66.09 C48.38,65.58 49.64,64.75 50.61,63.85 C51.68,64.86 52.37,66.47 52.33,68.28 C52.27,71.34 50.2,73.82 47.71,73.81 C45.23,73.81 43.27,71.32 43.33,68.26 Z" fill="#49362E"/>
  <path d="M84.67,68.26 C84.66,67.74 84.57,67.24 84.45,66.76 C83.48,66.63 82.45,66.43 81.3,66.09 C79.62,65.58 78.36,64.75 77.39,63.85 C76.32,64.86 75.63,66.47 75.68,68.28 C75.75,71.34 77.81,73.82 80.3,73.81 C82.77,73.81 84.73,71.32 84.67,68.26 Z" fill="#49362E"/>
  <path d="M55.29,58.42 C54.1,57.38 51.54,56.02 47.17,56.79 C42.8,57.56 40.86,59.72 40.1,61.1 C39.76,61.71 39.98,62.31 40.34,62.63 C40.68,62.93 41.55,63.11 42.4,62.66 C43.25,62.21 44.87,61.05 47.82,60.51 C50.78,60.01 52.69,60.55 53.65,60.68 C54.6,60.81 55.36,60.34 55.58,59.95 C55.81,59.52 55.81,58.88 55.29,58.42 Z" fill="#613E31"/>
  <path d="M87.9,61.13 C87.14,59.75 85.2,57.59 80.83,56.82 C76.46,56.05 73.9,57.41 72.71,58.45 C72.18,58.91 72.19,59.55 72.42,59.97 C72.64,60.37 73.39,60.83 74.35,60.7 C75.3,60.57 77.22,60.03 80.17,60.53 C83.12,61.07 84.73,62.24 85.59,62.68 C86.45,63.12 87.31,62.95 87.65,62.65 C88.01,62.33 88.23,61.74 87.9,61.13 Z" fill="#613E31"/>
  <path id="hair_5_" d="M64.57,12.87 C23.56,12.87 23.89,50.79 23.89,51.39 C23.89,59.15 24.08,67.92 24.64,76.71 L31.36,76.69 C31.3,73.77 33.35,55.72 39.44,54.35 C61.8,49.32 74.45,37.46 74.45,37.46 C77.74,44.65 88.03,51.65 91.72,54.32 C94.75,56.51 95.76,72.87 95.7,76.7 L103.33,76.7 C103.33,76.65 103.35,76.6 103.35,76.54 C103.91,67.79 104.09,59.08 104.09,51.37 C104.1,50.78 105.58,12.87 64.57,12.87 Z" fill="#543930"/>
  <path id="hairHighlights" d="M64.57,12.87 C23.56,12.87 23.89,50.79 23.89,51.39 C23.89,59.15 24.08,67.92 24.64,76.71 L31.36,76.69 C31.3,73.77 33.35,55.72 39.44,54.35 C61.8,49.32 74.45,37.46 74.45,37.46 C77.74,44.65 88.03,51.65 91.72,54.32 C94.75,56.51 95.76,72.87 95.7,76.7 L103.33,76.7 C103.33,76.65 103.35,76.6 103.35,76.54 C103.91,67.79 104.09,59.08 104.09,51.37 C104.1,50.78 105.58,12.87 64.57,12.87 Z" fill="url(#hairHighlights_3_)"/>
</svg>
